flutter/assets/file.svg

<svg xmlns="http://www.w3.org/2000/svg" width="32" height="32" style="isolation:isolate" viewBox="187.624 70.761 32 32"><path fill="none" d="M187.624 70.761h32v32h-32v-32Z"/><path fill-rule="evenodd" d="M199.771 89.326h7.706a.847.847 0 0 1 0 1.693h-7.706a.847.847 0 0 1 0-1.693Zm0-3.412h7.706a.848.848 0 0 1 0 1.694h-7.706a.848.848 0 0 1 0-1.694Zm-2.836-4.797v11.289a2.845 2.845 0 0 0 2.845 2.842h7.688a2.845 2.845 0 0 0 2.845-2.842V81.117a2.846 2.846 0 0 0-2.845-2.843h-7.688a2.846 2.846 0 0 0-2.845 2.843Zm2.836 1.386h7.706a.847.847 0 0 1 0 1.693h-7.706a.847.847 0 0 1 0-1.693Z"/></svg>

<?xml version="1.0" encoding="UTF-8" standalone="no"?>
<svg xmlns="http://www.w3.org/2000/svg" xmlns:xlink="http://www.w3.org/1999/xlink" style="isolation:isolate" viewBox="187.624 70.761 32 32" width="32" height="32"><g><path d=" M 187.624 70.761 L 219.624 70.761 L 219.624 102.761 L 187.624 102.761 L 187.624 70.761 Z " fill="none"/><path d=" M 199.771 89.326 L 207.477 89.326 C 207.944 89.326 208.324 89.705 208.324 90.173 L 208.324 90.173 C 208.324 90.64 207.944 91.019 207.477 91.019 L 199.771 91.019 C 199.304 91.019 198.924 90.64 198.924 90.173 L 198.924 90.173 C 198.924 89.705 199.304 89.326 199.771 89.326 L 199.771 89.326 L 199.771 89.326 Z  M 199.771 85.914 L 207.477 85.914 C 207.944 85.914 208.324 86.294 208.324 86.761 L 208.324 86.761 C 208.324 87.228 207.944 87.608 207.477 87.608 L 199.771 87.608 C 199.304 87.608 198.924 87.228 198.924 86.761 L 198.924 86.761 C 198.924 86.294 199.304 85.914 199.771 85.914 L 199.771 85.914 Z  M 196.935 81.117 L 196.935 92.406 C 196.935 93.974 198.21 95.248 199.78 95.248 L 207.468 95.248 C 209.038 95.248 210.313 93.974 210.313 92.406 L 210.313 81.117 C 210.313 79.548 209.038 78.274 207.468 78.274 L 199.78 78.274 C 198.21 78.274 196.935 79.548 196.935 81.117 L 196.935 81.117 L 196.935 81.117 Z  M 199.771 82.503 L 207.477 82.503 C 207.944 82.503 208.324 82.882 208.324 83.35 L 208.324 83.35 C 208.324 83.817 207.944 84.196 207.477 84.196 L 199.771 84.196 C 199.304 84.196 198.924 83.817 198.924 83.35 L 198.924 83.35 C 198.924 82.882 199.304 82.503 199.771 82.503 Z " fill-rule="evenodd" fill="rgb(0,0,0)"/></g></svg>
